images/icons/goal.svg

<svg height="649pt" viewBox="-25 -20 649 649.33548" width="649pt" xmlns="http://www.w3.org/2000/svg"><path d="m119.832031 158.996094c-33.121093 0-59.96875-26.851563-59.96875-59.96875 0-33.121094 26.847657-59.964844 59.96875-59.964844 33.117188 0 59.964844 26.84375 59.964844 59.964844-.03125 33.101562-26.863281 59.933594-59.964844 59.96875zm0-99.945313c-22.082031 0-39.980469 17.894531-39.980469 39.976563 0 22.078125 17.898438 39.980468 39.980469 39.980468 22.078125 0 39.976563-17.902343 39.976563-39.980468 0-22.082032-17.898438-39.976563-39.976563-39.976563zm0 0"/><path d="m359.699219 438.84375v59.96875h-109.9375v-137.136719l-59.96875-19.992187v-102.730469h89.949219c27.585937-.035156 49.941406-22.390625 49.976562-49.972656v-19.988281h-279.851562c-27.585938.027343-49.9375005 22.382812-49.972657 49.972656v109.9375c0 16.558594 13.425781 29.984375 29.984375 29.984375h19.988282v179.902343h-49.972657v69.964844h19.992188v-49.976562h139.921875v49.976562h19.988281v-89.953125h179.902344v89.953125h19.992187v-149.921875h199.890625v149.921875h19.988281v-169.910156zm-309.832031-209.886719v109.941407h-19.988282c-5.519531 0-9.992187-4.476563-9.992187-9.996094v-109.9375c0-16.566406 13.421875-29.984375 29.980469-29.984375h259.859374c0 16.558593-13.425781 29.984375-29.984374 29.984375h-109.9375v137.132812l59.964843 19.988282v122.726562h-29.980469v-106.875l-99.949218-37.480469v184.332031h-29.980469v-309.832031zm109.941406 269.855469v39.976562h-39.976563v-155.484374l59.964844 22.484374v93.023438zm0 0"/><path d="m439.65625 408.859375h79.957031v-249.863281h57.871094l-97.847656-158.996094-97.847657 158.996094h57.867188zm-22.085938-269.851563 62.066407-100.871093 62.066406 100.871093h-42.078125v249.863282h-39.976562v-249.863282zm0 0"/></svg>

<svg height="649pt" viewBox="-25 -20 649 649.335" width="649pt" xmlns="http://www.w3.org/2000/svg"><path d="M119.832 158.996c-33.121 0-59.969-26.851-59.969-59.969 0-33.12 26.848-59.965 59.969-59.965 33.117 0 59.965 26.844 59.965 59.965-.031 33.102-26.863 59.934-59.965 59.97zm0-99.945c-22.082 0-39.98 17.894-39.98 39.976 0 22.078 17.898 39.98 39.98 39.98 22.078 0 39.977-17.902 39.977-39.98 0-22.082-17.899-39.976-39.977-39.976zM359.7 438.844v59.969H249.761V361.675l-59.969-19.992v-102.73h89.95c27.585-.036 49.94-22.391 49.976-49.974v-19.988H49.867C22.281 169.02-.07 191.375-.105 218.965v109.937c0 16.559 13.425 29.985 29.984 29.985h19.988v179.902H-.105v69.965h19.992v-49.977h139.922v49.977h19.988V518.8h179.902v89.953h19.992V458.832h199.891v149.922h19.988v-169.91zM49.866 228.957v109.941H29.88c-5.52 0-9.992-4.476-9.992-9.996V218.965c0-16.567 13.422-29.985 29.98-29.985h259.86c0 16.56-13.426 29.985-29.985 29.985H169.805v137.133l59.965 19.988v122.726h-29.98V391.938l-99.95-37.48V538.79H69.86V228.957zM159.81 498.813v39.976h-39.977V383.305l59.965 22.484v93.024zm0 0"/><path d="M439.656 408.86h79.957V158.995h57.871L479.637 0l-97.848 158.996h57.867zM417.57 139.007l62.067-100.871 62.066 100.87h-42.078V388.87h-39.977V139.008zm0 0"/></svg>
